packages/tokens/icons/commerce/size32Px.svg

<svg viewBox="0 0 32 32" fill="none" xmlns="http://www.w3.org/2000/svg" width="1em" height="1em"><path d="M13.8884 7.57398L6.15777 21.2936C5.73007 22.0526 5.99128 23.0275 6.74119 23.471L15.4407 28.6158" stroke="currentColor" stroke-linecap="round"/><path d="M10.6948 8.39954L2.96417 22.1192C2.53647 22.8782 2.79768 23.853 3.54759 24.2965L12.2471 29.4414" stroke="currentColor" stroke-linecap="round"/><path d="M17.93 6.68416C17.2701 6.86099 16.7113 7.30019 16.3835 7.89965L9.96545 19.6382C9.31395 20.8298 9.73288 22.3235 10.909 23.0026L17.915 27.0475C19.1107 27.7379 20.6397 27.3282 21.3301 26.1324L27.8197 14.8921C28.1512 14.3179 28.241 13.6355 28.0694 12.9951L26.4595 6.98688C26.1022 5.65321 24.7313 4.86175 23.3977 5.21911L17.93 6.68416Z" stroke="currentColor" stroke-linecap="round"/><circle cx="1.59681" cy="1.59681" r="1.09681" transform="matrix(0.860742 0.509041 -0.490904 0.871214 22.7513 7.01196)" stroke="currentColor"/></svg>

<svg xmlns="http://www.w3.org/2000/svg" fill="none" viewBox="0 0 32 32" width="1em" height="1em"><path stroke="currentColor" stroke-linecap="round" d="m13.888 7.574-7.73 13.72a1.618 1.618 0 0 0 .583 2.177l8.7 5.145"/><path stroke="currentColor" stroke-linecap="round" d="m10.695 8.4-7.73 13.72a1.618 1.618 0 0 0 .583 2.177l8.7 5.144"/><path stroke="currentColor" stroke-linecap="round" d="M17.93 6.684A2.5 2.5 0 0 0 16.384 7.9L9.965 19.638a2.5 2.5 0 0 0 .944 3.365l7.006 4.044a2.5 2.5 0 0 0 3.415-.915l6.49-11.24a2.5 2.5 0 0 0 .25-1.897l-1.61-6.008a2.5 2.5 0 0 0-3.062-1.768L17.93 6.684Z"/><circle cx="1.597" cy="1.597" r="1.097" stroke="currentColor" transform="matrix(.86074 .50904 -.4909 .87121 22.751 7.012)"/></svg>
